dist/img/icon-address-2.svg

<svg width="48" height="48" viewBox="0 0 48 48" fill="none" xmlns="http://www.w3.org/2000/svg">
<circle cx="24" cy="24" r="24" fill="white"/>
<path d="M24.7408 30.4036L27.3055 27.8389C27.6481 27.4963 28.1871 27.4486 28.5846 27.7258L32.1353 30.2023C32.6459 30.5584 32.7106 31.2894 32.2704 31.7296L31.8841 32.1159C31.1739 32.8261 30.1547 33.1338 29.1986 32.826C27.1336 32.1613 23.3767 30.6179 20.2618 27.503C17.1468 24.388 15.6034 20.6311 14.9387 18.5661C14.6309 17.61 14.9386 16.5908 15.6489 15.8806L16.0351 15.4943C16.4753 15.0541 17.2063 15.1188 17.5624 15.6294L20.0389 19.1801C20.3161 19.5776 20.2684 20.1166 19.9258 20.4593L17.3611 23.0239" stroke="#393939" stroke-width="1.5" stroke-linecap="round"/>
</svg>

<svg width="48" height="48" fill="none" xmlns="http://www.w3.org/2000/svg"><circle cx="24" cy="24" r="24" fill="#fff"/><path d="M24.74 30.404l2.566-2.565a1 1 0 011.279-.113l3.55 2.476a1 1 0 01.135 1.528l-.386.386c-.71.71-1.73 1.018-2.685.71-2.065-.665-5.822-2.208-8.937-5.323-3.115-3.115-4.659-6.872-5.323-8.937-.308-.956 0-1.975.71-2.685l.386-.387a1 1 0 011.527.135l2.477 3.551a1 1 0 01-.113 1.28l-2.565 2.564" stroke="#393939" stroke-width="1.5" stroke-linecap="round"/></svg>
